img/javascript.svg

<svg width="110" height="126" viewBox="0 0 110 126" fill="none" xmlns="http://www.w3.org/2000/svg">
<g clip-path="url(#clip0_1_22)">
<path d="M0 0V126H110V0H0ZM58.1847 107.365C56.5611 111.144 53.4618 113.627 49.8705 114.825C44.352 116.277 39.0738 115.449 35.1472 112.75C32.5195 110.903 30.4674 108.061 29.0743 104.786L37.4519 98.909C37.525 98.9443 37.745 99.3999 38.0389 99.9886C39.1072 102.039 40.0286 103.49 41.8396 104.509C43.619 105.205 47.5253 105.649 49.0336 102.063C49.955 100.239 49.6619 94.374 49.6619 87.8855C49.661 77.6896 49.7024 67.536 49.7024 57.456H60.0063C60.0063 68.544 60.0591 79.0453 60.0063 89.8652C60.0283 96.4979 60.5308 102.411 58.1847 107.365ZM100.93 104.031C97.3482 118.064 77.3793 118.52 69.3994 109.248C67.7134 107.066 66.6565 105.926 65.6506 103.407C69.8914 100.613 69.8914 100.613 74.0177 97.8778C76.259 101.824 78.3314 103.994 82.06 104.882C87.1182 105.59 92.2073 103.599 91.0659 97.4454C89.8929 92.4195 80.7083 91.1968 74.4577 85.8221C68.112 80.9404 66.6248 69.0782 71.8397 62.3004C73.5777 59.7936 76.5415 57.9227 79.6514 57.0236L82.8969 56.5428C89.1282 56.3986 93.023 58.2836 95.8822 61.9406C96.6777 62.8639 97.3271 63.8598 98.5415 66.018C95.2222 68.4412 95.2327 68.418 90.4781 71.944C89.4626 69.4381 87.7774 67.8656 85.9962 67.1822C83.2313 66.2226 79.7447 67.2659 79.0214 70.6124C78.7706 71.6436 78.8225 72.6032 79.2211 74.3067C80.3414 77.233 84.1007 78.5051 87.4729 80.2801C97.1802 84.7899 100.458 89.6253 101.264 95.381C102.04 100.336 101.077 103.551 100.93 104.031Z" fill="#F0DB4F"/>
</g>
<defs>
<clipPath id="clip0_1_22">
<rect width="110" height="126" fill="white"/>
</clipPath>
</defs>
</svg>

<svg xmlns="http://www.w3.org/2000/svg" width="110" height="126" fill="none"><g clip-path="url(#a)"><path fill="#F0DB4F" d="M0 0v126h110V0H0Zm58.185 107.365c-1.624 3.779-4.723 6.262-8.315 7.46-5.518 1.452-10.796.624-14.723-2.075-2.627-1.847-4.68-4.689-6.073-7.964l8.378-5.877c.073.035.293.49.587 1.08 1.068 2.05 1.99 3.501 3.8 4.52 1.78.696 5.686 1.14 7.195-2.446.921-1.824.628-7.689.628-14.178-.001-10.195.04-20.349.04-30.429h10.304c0 11.088.053 21.59 0 32.41.022 6.632.525 12.545-1.821 17.499Zm42.745-3.334c-3.582 14.033-23.55 14.489-31.53 5.217-1.687-2.182-2.744-3.322-3.75-5.841 4.241-2.794 4.241-2.794 8.368-5.53 2.241 3.947 4.313 6.117 8.042 7.005 5.058.708 10.147-1.283 9.006-7.437-1.173-5.025-10.358-6.248-16.608-11.623-6.346-4.882-7.833-16.744-2.618-23.522 1.738-2.506 4.701-4.377 7.811-5.276l3.246-.481c6.231-.144 10.126 1.74 12.985 5.398.796.923 1.445 1.919 2.66 4.077-3.32 2.423-3.31 2.4-8.064 5.926-1.015-2.506-2.7-4.078-4.482-4.762-2.765-.96-6.251.084-6.975 3.43-.25 1.032-.198 1.991.2 3.695 1.12 2.926 4.88 4.198 8.252 5.973 9.707 4.51 12.985 9.345 13.791 15.101.776 4.955-.187 8.17-.334 8.65Z"/></g><defs><clipPath id="a"><path fill="#fff" d="M0 0h110v126H0z"/></clipPath></defs></svg>
